X: 11353
Q: "Lively dancing time."
M: C
L: 1/8
K: Bb
d/c/ |\
|: z2 |\
dBfe d2f2 | dBdf bfdB | cFed c2e2 | cdcB Acf2 |\
dBfe d2f2 | dBdf bfdB | ABcB AFGA | B2d2B2 :|


